X: 131473
T: Mermaid of Mullaghmore
T: Maighdean Mhara an Mhullaigh Mh\'oir
S: B.Breathnach: "Ceol Rince na hEireann" II/134 
Z: B.Black
L: 1/8
M: 4/4
R: reel
K: D
AG|FADA FADF|ABAG FEED|FGAF D2 Dg|fdec dABG|
FADF AdAF|GBAF GFED|FGAF D2 Dg|fdec defg||
a2 fa dafa|(3gag eg =cgeg|a2 fa dafa|gbag fdfg|
(3aaa fa dafa|(3gag eg =cgeg|fage fdec|dABG FEDf||
